src/assets/img/Careers/icons/workbagicon.svg

<svg width="34" height="34" viewBox="0 0 34 34" fill="none" xmlns="http://www.w3.org/2000/svg">
<g id="Icon">
<g id="Subtract">
<path fill-rule="evenodd" clip-rule="evenodd" d="M10.625 7.4375C10.625 5.09029 12.5278 3.1875 14.875 3.1875H19.125C21.4722 3.1875 23.375 5.09029 23.375 7.4375V7.72788C24.696 7.84881 26.0063 8.00695 27.3049 8.20125C29.3648 8.50946 30.8125 10.3015 30.8125 12.3331V16.6301C30.8125 18.3459 29.7732 19.9626 28.0694 20.529C24.5885 21.6863 20.8663 22.3125 17.0001 22.3125C13.1337 22.3125 9.41151 21.6863 5.93055 20.529C4.22682 19.9626 3.1875 18.3458 3.1875 16.6301V12.3331C3.1875 10.3015 4.6352 8.50947 6.69511 8.20125C7.99369 8.00695 9.30401 7.84881 10.625 7.72789V7.4375ZM21.25 7.4375V7.56617C19.8442 7.4808 18.4271 7.4375 17 7.4375C15.5729 7.4375 14.1558 7.4808 12.75 7.56617V7.4375C12.75 6.2639 13.7014 5.3125 14.875 5.3125H19.125C20.2986 5.3125 21.25 6.2639 21.25 7.4375ZM17 19.125C17.5868 19.125 18.0625 18.6493 18.0625 18.0625C18.0625 17.4757 17.5868 17 17 17C16.4132 17 15.9375 17.4757 15.9375 18.0625C15.9375 18.6493 16.4132 19.125 17 19.125Z" fill="#CAFF33"/>
<path d="M4.25 26.0666V22.1056C4.56597 22.2789 4.90304 22.4268 5.26013 22.5455C8.95457 23.7738 12.903 24.4375 17.0001 24.4375C21.097 24.4375 25.0454 23.7738 28.7398 22.5455C29.0969 22.4268 29.434 22.2789 29.75 22.1056V26.0666C29.75 28.1235 28.2664 29.9306 26.1756 30.2082C23.1732 30.6068 20.1103 30.8125 17 30.8125C13.8897 30.8125 10.8268 30.6068 7.82444 30.2082C5.73359 29.9306 4.25 28.1235 4.25 26.0666Z" fill="#CAFF33"/>
</g>
</g>
</svg>

<svg width="34" height="34" fill="none" xmlns="http://www.w3.org/2000/svg"><g fill="#CAFF33"><path fill-rule="evenodd" clip-rule="evenodd" d="M10.625 7.438a4.25 4.25 0 0 1 4.25-4.25h4.25a4.25 4.25 0 0 1 4.25 4.25v.29c1.321.12 2.631.279 3.93.473 2.06.308 3.508 2.1 3.508 4.132v4.297c0 1.716-1.04 3.333-2.744 3.899A35.028 35.028 0 0 1 17 22.313c-3.866 0-7.588-.627-11.07-1.784-1.703-.566-2.742-2.183-2.742-3.899v-4.297c0-2.031 1.447-3.824 3.507-4.132a69.158 69.158 0 0 1 3.93-.473v-.29Zm10.625 0v.128a70.11 70.11 0 0 0-8.5 0v-.128c0-1.174.951-2.125 2.125-2.125h4.25c1.174 0 2.125.95 2.125 2.125ZM17 19.124A1.063 1.063 0 1 0 17 17a1.063 1.063 0 0 0 0 2.125Z"/><path d="M4.25 26.067v-3.961c.316.173.653.32 1.01.44A37.153 37.153 0 0 0 17 24.438c4.097 0 8.045-.664 11.74-1.892a6.1 6.1 0 0 0 1.01-.44v3.96c0 2.058-1.484 3.865-3.574 4.142a69.696 69.696 0 0 1-9.176.605c-3.11 0-6.173-.206-9.176-.605-2.09-.277-3.574-2.084-3.574-4.141Z"/></g></svg>
